logos/axios.svg

<?xml version="1.0" encoding="UTF-8"?>
<svg width="512px" height="75px" viewBox="0 0 512 75" version="1.1" xmlns="http://www.w3.org/2000/svg" xmlns:xlink="http://www.w3.org/1999/xlink" preserveAspectRatio="xMidYMid">
    <title>Axios</title>
    <g>
        <path d="M254.113792,9.1821109 L254.113792,69.3474971 L247.556596,74.6286079 L247.556596,24.5792631 L235.213576,24.5792631 L254.113792,9.1821109 Z M481.537396,0 C487.028509,0 492.1274,0.828033175 496.834068,2.48406956 C501.361573,4.04811679 505.267118,5.80652661 508.550703,7.75929903 L509.123703,8.10592353 L502.325182,21.0492617 C501.704804,20.5416799 500.828976,19.9611123 499.697699,19.3075592 L499.055305,18.9438374 L499.055305,18.9438374 L498.362243,18.5656391 L498.362243,18.5656391 L497.618513,18.1729644 C495.52666,17.0398775 493.042585,16.0811117 490.166288,15.296667 C487.289991,14.4250617 484.326533,13.9892591 481.275914,13.9892591 C473.082825,13.9892591 468.98628,16.299013 468.98628,20.918521 C468.98628,23.6204973 470.468009,25.5380289 473.431467,26.6712519 L474.106516,26.9160574 L474.106516,26.9160574 L474.824257,27.1648651 L474.824257,27.1648651 L475.584688,27.4176751 L475.584688,27.4176751 L476.38781,27.6744874 L476.38781,27.6744874 L477.233623,27.9353019 L477.233623,27.9353019 L478.122126,28.2001187 C478.273768,28.2445883 478.427188,28.2892248 478.582387,28.3340279 L479.534927,28.6048482 L479.534927,28.6048482 L480.530158,28.8796706 L480.530158,28.8796706 L481.56808,29.1584954 L481.56808,29.1584954 L482.648693,29.4413224 L482.648693,29.4413224 L483.771996,29.7281517 L483.771996,29.7281517 L485.536997,30.1658999 L485.536997,30.1658999 L486.767028,30.4627348 L486.767028,30.4627348 C491.909499,31.7701427 496.354685,33.2518717 500.102588,34.9079217 C503.777857,36.4949696 506.612617,38.6023326 508.606868,41.2300106 L508.862221,41.575702 C510.954074,44.2776783 512,47.8509875 512,52.2961744 C512,57.700127 510.605432,62.0584257 507.816295,65.3705257 C505.114318,68.5954652 501.540737,70.9487994 497.09555,72.4305284 C492.650363,73.8250968 487.856534,74.522381 482.714063,74.522381 C476.787147,74.522381 470.903812,73.694356 465.064056,72.038306 C459.502385,70.4611155 454.533642,68.3305249 450.157828,65.6465341 L449.505902,65.239785 L456.565905,51.512002 C457.698992,52.6450888 459.572943,53.9089165 462.187759,55.3034849 C464.889735,56.6980533 468.027514,57.8747204 471.601096,58.8334862 C475.174677,59.792252 478.96616,60.2716349 482.975545,60.2716349 C490.994313,60.2716349 495.003697,58.136202 495.003697,53.8653362 C495.003697,50.9890388 493.129746,48.9407665 489.381843,47.7205191 L488.480673,47.404231 L488.480673,47.404231 L487.534319,47.0829224 L487.534319,47.0829224 L486.542781,46.7565934 L486.542781,46.7565934 L485.506059,46.4252439 L485.506059,46.4252439 L484.424153,46.088874 L484.424153,46.088874 L483.297062,45.7474837 C483.105449,45.6901669 482.911952,45.632641 482.716573,45.5749058 L481.521707,45.2259848 L481.521707,45.2259848 L480.281657,44.8720434 L480.281657,44.8720434 L478.996423,44.5130814 L478.996423,44.5130814 L477.666004,44.1490991 L477.666004,44.1490991 L475.585657,43.5937122 L475.585657,43.5937122 L474.869616,43.406073 C467.37381,41.4885414 461.795537,39.0480467 458.134795,36.0845888 C454.561213,33.0339703 452.774422,28.675944 452.774422,23.0103736 C452.774422,17.955063 454.03825,13.7277775 456.565905,10.328517 C459.180721,6.92925642 462.667142,4.35802089 467.025168,2.61481035 C471.470355,0.871605267 476.307764,0 481.537396,0 Z M360.291656,0.130732619 C365.822997,0.130732619 370.873347,1.13805025 375.437865,3.15266615 L375.983274,3.39925509 C380.689943,5.49110773 384.699327,8.32382485 388.011427,11.8974064 C391.410688,15.3838275 394.02278,19.3496315 395.853151,23.7948183 C397.683522,28.2401414 398.601431,32.7722164 398.601431,37.3917243 C398.601431,42.1855533 397.642665,46.8053336 395.725134,51.2505204 C393.807602,55.6085468 391.102902,59.5307705 387.616481,63.0171915 C384.21722,66.4164521 380.16698,69.1184284 375.460311,71.1231205 C370.753643,73.1278126 365.611172,74.1301587 360.032898,74.1301587 C354.280303,74.1301587 349.050672,73.1278126 344.344003,71.1231205 C339.637335,69.0312679 335.581646,66.242131 332.182386,62.7557099 C328.783125,59.1821283 326.16831,55.1727441 324.337939,50.7275573 C322.510291,46.2823704 321.592382,41.7064428 321.592382,36.9997743 C321.592382,32.2059453 322.551148,27.5864374 324.468679,23.1411144 C326.29905,18.8979815 328.846656,15.1313749 332.106757,11.8412237 L332.577332,11.3744433 C336.063753,7.88802222 340.157574,5.14246563 344.864243,3.13777351 C349.570911,1.13308957 354.713382,0.130732619 360.291656,0.130732619 Z M44.844091,0.522968608 L76.6141029,73.6071955 L59.8792818,73.6071955 L52.5577976,56.480152 L24.1870461,56.480152 L16.8655619,73.6071955 L0,73.6071955 L31.9007528,0.522968608 L44.844091,0.522968608 Z M138.424808,0.522968608 L158.558889,26.4096341 L178.692971,0.522968608 L195.820014,0.522968608 L166.9263,37.5227375 L194.904829,73.6071955 L177.777785,73.6071955 L158.558889,48.7664454 L139.470734,73.6071955 L122.082209,73.6071955 L150.191479,37.5227375 L121.167023,0.522968608 L138.424808,0.522968608 Z M266.105174,0.188212262 L266.105174,49.0932974 L278.79384,49.0932974 L259.561325,64.8767069 L259.561325,4.74425097 L266.105174,0.188212262 Z M360.032898,14.2507407 C355.239069,14.2507407 351.139801,15.3838275 347.74054,17.6500012 C344.42844,19.9161749 341.900785,22.7924995 340.157574,26.2789206 C338.414364,29.7654506 337.542758,33.3826125 337.542758,37.1305151 C337.542758,41.0527388 338.460668,44.8006414 340.291039,48.374223 C342.118686,51.8606441 344.689922,54.6933612 348.002022,56.8723744 C351.401282,59.0513876 355.454247,60.1408941 360.160915,60.1408941 C364.954744,60.1408941 369.007708,59.0078073 372.319808,56.7416336 C375.634632,54.3882994 378.159564,51.4684217 379.902774,47.9817283 C381.645985,44.4081467 382.520314,40.747677 382.520314,36.9997743 C382.520314,33.0775506 381.605128,29.3729559 379.774757,25.886671 C377.944386,22.4002499 375.32957,19.6111131 371.927586,17.5192604 C368.615486,15.3402472 364.652406,14.2507407 360.032898,14.2507407 Z M38.4377923,19.7418538 L27.7170475,42.7523691 L48.7663147,42.7523691 L38.4377923,19.7418538 Z" fill="#5A29E4"></path>
    </g>
</svg>

<svg width="512" height="75" xmlns="http://www.w3.org/2000/svg" preserveAspectRatio="xMidYMid">
	<path d="M254.114 9.182v60.165l-6.557 5.282v-50.05h-12.343l18.9-15.397ZM481.537 0c5.492 0 10.59.828 15.297 2.484 4.528 1.564 8.433 3.323 11.717 5.275l.573.347-6.799 12.943c-.62-.507-1.496-1.088-2.627-1.741l-.643-.364-.693-.378-.743-.393c-2.092-1.133-4.576-2.092-7.453-2.876a30.487 30.487 0 0 0-8.89-1.308c-8.193 0-12.29 2.31-12.29 6.93 0 2.701 1.482 4.619 4.445 5.752l.676.245.717.249.76.253.804.256.846.261.888.265c.152.045.305.09.46.134l.953.27.995.276 1.038.278 1.08.283 1.124.287 1.765.438 1.23.297c5.142 1.307 9.588 2.789 13.336 4.445 3.675 1.587 6.51 3.694 8.504 6.322l.255.346c2.092 2.702 3.138 6.275 3.138 10.72 0 5.404-1.395 9.762-4.184 13.075-2.702 3.224-6.275 5.578-10.72 7.06-4.446 1.394-9.24 2.091-14.382 2.091-5.927 0-11.81-.828-17.65-2.484-5.562-1.577-10.53-3.707-14.906-6.391l-.652-.407 7.06-13.728c1.133 1.133 3.007 2.397 5.622 3.791 2.702 1.395 5.84 2.572 9.413 3.53 3.574.96 7.365 1.439 11.375 1.439 8.018 0 12.028-2.136 12.028-6.407 0-2.876-1.874-4.924-5.622-6.144l-.901-.317-.947-.321-.991-.326-1.037-.332-1.082-.336-1.127-.342-.58-.172-1.195-.349-1.24-.354-1.286-.359-1.33-.364-2.08-.555-.716-.188c-7.496-1.917-13.074-4.358-16.735-7.321-3.574-3.051-5.36-7.41-5.36-13.075 0-5.055 1.263-9.282 3.79-12.681 2.616-3.4 6.102-5.971 10.46-7.714C471.47.872 476.308 0 481.537 0ZM360.292.13c5.531 0 10.581 1.008 15.146 3.023l.545.246c4.707 2.092 8.716 4.925 12.028 8.498 3.4 3.487 6.012 7.453 7.842 11.898 1.83 4.445 2.748 8.977 2.748 13.597 0 4.794-.958 9.413-2.876 13.859-1.917 4.358-4.622 8.28-8.109 11.766-3.399 3.4-7.449 6.101-12.156 8.106-4.706 2.005-9.849 3.007-15.427 3.007-5.753 0-10.982-1.002-15.689-3.007-4.707-2.092-8.762-4.88-12.162-8.367-3.399-3.574-6.014-7.583-7.844-12.028-1.828-4.446-2.746-9.022-2.746-13.728 0-4.794.96-9.414 2.877-13.859a36.412 36.412 0 0 1 7.638-11.3l.47-.467c3.487-3.486 7.58-6.232 12.287-8.236 4.707-2.005 9.85-3.007 15.428-3.007ZM44.844.524l31.77 73.084H59.88L52.558 56.48H24.187l-7.321 17.127H0L31.9.523h12.944Zm93.58 0L158.56 26.41 178.693.523h17.127l-28.894 37 27.979 36.084h-17.127l-19.22-24.84-19.087 24.84h-17.389l28.11-36.084-29.025-37h17.258ZM266.106.188v48.905h12.689L259.56 64.877V4.744l6.544-4.556Zm93.928 14.063c-4.794 0-8.893 1.133-12.292 3.399-3.313 2.266-5.84 5.142-7.583 8.629-1.744 3.486-2.615 7.104-2.615 10.852 0 3.922.918 7.67 2.748 11.243 1.828 3.487 4.399 6.32 7.711 8.498 3.4 2.18 7.452 3.269 12.159 3.269 4.794 0 8.847-1.133 12.159-3.4 3.315-2.353 5.84-5.273 7.583-8.76 1.743-3.573 2.617-7.233 2.617-10.981 0-3.922-.915-7.627-2.745-11.113-1.83-3.487-4.445-6.276-7.847-8.368-3.313-2.179-7.276-3.268-11.895-3.268ZM38.438 19.74 27.717 42.753h21.05l-10.33-23.01Z" fill="#5A29E4"/>
</svg>
